Adwaita++-Light/panel/16/synapse-panel.svg

<svg height="16" width="16" xmlns="http://www.w3.org/2000/svg">
  <path d="m7 0v1.1894531a6.5 6.5 0 0 0 -4.8203125 4.8105469h2.0859375a4.5 4.5 0 0 1 4.234375-3 4.5 4.5 0 0 1 4.232422 3h2.076172a6.5 6.5 0 0 0 -4.808594-4.8105469v-1.1894531zm1.5 4a3.5 3.5 0 0 0 -3.5 3.5 3.5 3.5 0 0 0 .0410156.5h.359375.6542969 4.8945315a2.5 2.5 0 0 1 -2.449219 2 2.5 2.5 0 0 1 -1.9980469-1h-1.1601562a3.5 3.5 0 0 0 3.1582031 2 3.5 3.5 0 0 0 3.5-3.5 3.5 3.5 0 0 0 -.041016-.5h-.558593-.455079-4.8945308a2.5 2.5 0 0 1 2.4492188-2 2.5 2.5 0 0 1 1.998047 1h1.160156a3.5 3.5 0 0 0 -3.158203-2zm-6.3164062 5a6.5 6.5 0 0 0 4.8164062 4.814453v1.185547h1 1 1v-1.191406a6.5 6.5 0 0 0 4.816406-4.808594h-2.080078a4.5 4.5 0 0 1 -4.236328 3 4.5 4.5 0 0 1 -4.2363281-3z" fill="#444"/>
</svg>

<svg xmlns="http://www.w3.org/2000/svg" width="16" height="16" version="1.1">
 <defs>
  <style id="current-color-scheme" type="text/css">
   .ColorScheme-Text { color:#444444; } .ColorScheme-Highlight { color:#4285f4; }
  </style>
 </defs>
 <path style="fill:currentColor" class="ColorScheme-Text" d="M 7 0 L 7 1.1894531 A 6.5 6.5 0 0 0 2.1796875 6 L 4.265625 6 A 4.5 4.5 0 0 1 8.5 3 A 4.5 4.5 0 0 1 12.732422 6 L 14.808594 6 A 6.5 6.5 0 0 0 10 1.1894531 L 10 0 L 7 0 z M 8.5 4 A 3.5 3.5 0 0 0 5 7.5 A 3.5 3.5 0 0 0 5.0410156 8 L 5.4003906 8 L 6.0546875 8 L 10.949219 8 A 2.5 2.5 0 0 1 8.5 10 A 2.5 2.5 0 0 1 6.5019531 9 L 5.3417969 9 A 3.5 3.5 0 0 0 8.5 11 A 3.5 3.5 0 0 0 12 7.5 A 3.5 3.5 0 0 0 11.958984 7 L 11.400391 7 L 10.945312 7 L 6.0507812 7 A 2.5 2.5 0 0 1 8.5 5 A 2.5 2.5 0 0 1 10.498047 6 L 11.658203 6 A 3.5 3.5 0 0 0 8.5 4 z M 2.1835938 9 A 6.5 6.5 0 0 0 7 13.814453 L 7 15 L 8 15 L 9 15 L 10 15 L 10 13.808594 A 6.5 6.5 0 0 0 14.816406 9 L 12.736328 9 A 4.5 4.5 0 0 1 8.5 12 A 4.5 4.5 0 0 1 4.2636719 9 L 2.1835938 9 z"/>
</svg>
